X:1
T:Jesse Munroe
M:3/4
L:1/4
K:F
 A| A c A| A c F| F A F| F A F| A c f| f e c| c A c| f z c| d f f|\
 f e F/2F/2| A F C/2C/2| F A A| d d d| d c F| A F F| F3/2 z/2 z/2 C/2|\
 F3/2 G/2 A| A3/2 z/2 c| A F F| A c A| d d d| d c F| A F F| F2||
